timeline-remove-outline.svg

<svg fill="currentColor" viewBox="0 0 24 24"><path d="M4 8H2V2h2zM2 22h2v-6H2zm1-12a2 2 0 1 0 0 4c1.11 0 2-.89 2-2a2 2 0 0 0-2-2m10.88 5.54L16 13.41l2.12 2.12 1.41-1.41L17.41 12l2.12-2.12-1.41-1.41L16 10.59l-2.12-2.12-1.41 1.41L14.59 12l-2.12 2.12zM24 6v12c0 1.11-.89 2-2 2H10a2 2 0 0 1-2-2v-4l-2-2 2-2V6a2 2 0 0 1 2-2h12c1.11 0 2 .89 2 2m-2 0H10v12h12z"/></svg>

<svg  viewBox="0 0 24 24" fill="currentColor"><path  d="M4 8H2V2H4V8M2 22H4V16H2V22M3 10C1.9 10 1 10.9 1 12C1 13.11 1.9 14 3 14C4.11 14 5 13.11 5 12C5 10.9 4.11 10 3 10M13.88 15.54L16 13.41L18.12 15.53L19.53 14.12L17.41 12L19.53 9.88L18.12 8.47L16 10.59L13.88 8.47L12.47 9.88L14.59 12L12.47 14.12L13.88 15.54M24 6V18C24 19.11 23.11 20 22 20H10C8.9 20 8 19.11 8 18V14L6 12L8 10V6C8 4.89 8.9 4 10 4H22C23.11 4 24 4.89 24 6M22 6H10V18H22V6Z"/></svg>
